remix/Logos/patreon-line.svg

<svg viewBox="0 0 24 24" fill="currentColor" xmlns="http://www.w3.org/2000/svg"><path d="M15.001 17C10.8588 17 7.50098 13.6421 7.50098 9.5C7.50098 5.35786 10.8588 2 15.001 2C19.1431 2 22.501 5.35786 22.501 9.5C22.501 13.6421 19.1431 17 15.001 17ZM15.001 15C18.0385 15 20.501 12.5376 20.501 9.5C20.501 6.46243 18.0385 4 15.001 4C11.9634 4 9.50098 6.46243 9.50098 9.5C9.50098 12.5376 11.9634 15 15.001 15ZM2.00098 2H7.00098V22H2.00098V2ZM4.00098 4V20H5.00098V4H4.00098Z"/></svg>

<svg viewBox="0 0 24 24" xmlns="http://www.w3.org/2000/svg"><path fill="none" d="M0 0h24v24H0Z"/><path d="M15 17v0c-4.15 0-7.5-3.36-7.5-7.5C7.5 5.35 10.85 2 15 2v0c4.14 0 7.5 3.35 7.5 7.5 0 4.14-3.36 7.5-7.5 7.5Zm0-2v0c3.03 0 5.5-2.47 5.5-5.5C20.5 6.46 18.03 4 15 4v0c-3.04 0-5.5 2.46-5.5 5.5 0 3.03 2.46 5.5 5.5 5.5ZM2 2h5v20H2V2Zm2 2v16h1V4H4Z"/></svg>
